svgs/sharp-solid/golf-club.svg

<svg xmlns="http://www.w3.org/2000/svg" viewBox="0 0 512 512"><!--! Font Awesome Pro 6.6.0 by @fontawesome - https://fontawesome.com License - https://fontawesome.com/license (Commercial License) Copyright 2024 Fonticons, Inc. --><path d="M224 512L0 512l0-40 48 0 16 0 0-32-16 0L0 440l0-32 48 0 16 0 0-32-16 0L0 376l0-72 264 88 0 .5L451.4 17.7l57.2 28.6-224 448L275.8 512 256 512l-32 0z"/></svg>

<svg xmlns="http://www.w3.org/2000/svg" viewBox="0 0 512 512"><!--! Font Awesome Pro 6.4.2 by @fontawesome - https://fontawesome.com License - https://fontawesome.com/license (Commercial License) Copyright 2023 Fonticons, Inc. --><path d="M224 512L0 512V472H48 64V440H48 0V408H48 64V376H48 0V304l264 88 0 .5L451.4 17.7l57.2 28.6-224 448L275.8 512H256 224z"/></svg>
